!!!OTL: Das Regina coeli deutsch, auf die osterliche Zeit zu singen
!!!ARE: Europa, Mitteleuropa, Deutschland
!!!SCT: A0595A
!!!YEM: Copyright 1995, estate of Helmut Schaffrath.
**kern
*ICvox
*Ivox
*M4/1
*k[b-]
*F:
{1f
1cc
1a
1f
=1
2g
2a
1b-
0a
=2
1r
1cc
1dd
2cc
2b-
=3
1a
0f
1r}
=4
{1b-
1g
1a
1f
=5
1g
2f
2g
1a
2f
2f
=6
1g
2f
2e
1d
1c}
=7
{1cc
2cc
2b-
1a
1f
=8
0b-
1a
1f
=9
0g
0f}
==
!!!AGN: Romanze, Ballade, Lied, religioeses Lied
!! Leisentrit 1567 II fol. 24.
!!!ONB: ESAC (Essen Associative Code) Database: ALTDEU
!!!AMT: simple quadruple
!!!AIN: vox
!!!EED: Helmut Schaffrath
!!!EEV: 1.0
*-
